X:1
T:O filli vientene
T:O filli vientene
T:Gio.Girolamo Kapsperger
C:Gio.Girolamo Kapsperger
%%score [ 1 2 3 ] { ( 4 6 ) | 5 }
L:1/8
Q:1/4=120
M:3/2
K:F
V:1 treble nm="Soprano 1" snm="S 1"
V:2 treble nm="Soprano 2" snm="S 2"
V:3 bass nm="Bass" snm="B"
V:4 treble nm="BC" snm="BC"
V:6 treble 
V:5 bass 
V:1
 d4 d4 c4 | B4 c4 d4 | _e4 e4 d4 | c12 | B12 | d4 d4 e4 | c4 d4 _e4 | f4 f4 _e4 | d12 | c12 | %10
w: O- fil- li,'o|fil- * li|vien- de- te'O|fil-|li,|mi- ra ch'i'o-|no- * re|dol- ce te-|so-|ro,|
w: Vol- g'i ri-|den- * ti|bei lu- ni'ar-|den-|ti,|e le vez-|zo- * se|la- br'a- mo-|ro-|se,|
w: Di rag- gi'a-|dor- * no|gia splen- de'l|gior-|no,|e tu pur|ne- * ghi|cru- d'a miei|pre-|ghi,|
 _e4 e4 d4 | _e8 e4 | d4 B4 A4 | G8 G4 |:[M:4/4] B2 cd _ed cB | A2 ^F2 G2 AB | cB AG A4 | G8 :| %18
w: il dol- ce|ri- so|del tuo bel|vi- so.|Mi- r'a _ per- * to'il _|co- re che si _|strug- * ge _ mo-|re|
w: spi- rin dal|pet- to|gio- ia'e di-|let- to.|E lie- * to'e _ se- *|re- no fiam- meg- *|g'il _ bel _ se-|no.|
w: mo- ve- r'el|pie- de|ne ser- bi|fe- de.|O fe- * ra _ bel- *|lez- za che fe _|non _ ap- * prez-|za.|
V:2
 B4 B4 A4 | G4 A4 B4 | c4 c4 B4 | B8 A4 | B12 | B4 B4 B4 | A4 =B4 c4 | d4 d4 c4 | c8 =B4 | e12 | %10
w: O fil- li'o|fil- * li|vien- de- te'O|fil- *|li,|mi- ra chi'o-|no- * re|dol- ce te-|so- *|ro,|
w: Vol- g'i ri-|den- * ti|bei lu- ni'ar-|den- *|ti,|e le vez-|zo- * se|lab- br'a- mo-|ro- *|se,|
w: Di rag- gi'a-|dor- * no|gia splen- de'l|gior- *|no,|e tu pur|ne- * ghi|cru- d'a miei|pre- *|ghi,|
 c4 c4 =B4 | c8 c4 | B4 G4 ^F4 | G8 G4 |:[M:4/4] G2 AB cB AG | ^F2 D2 E2 FG | AG ^FE F4 | G8 :| %18
w: il dol- ce|ri- so|del tuo bel|vi- so.|Mi- r'a _ per _ to'il _|co- re che si _|strug- * ge _ mo-|re.|
w: spi- rin dal|pet- to|gio- ia'e di-|let- to.|E lie- * to'e _ se- *|re- no fiam- meg- *|g'il _ bel _ se-|no.|
w: mo- ve- r'el|pie- de|ne ser- bi|fe- de.|O fe- * ra _ bel _|lez- za che fe _|non _ ap- * prez-|za.|
V:3
 G,4 B,4 F,4 | G,8 F,4 | _E,4 E,4 B,,4 | F,12 | B,,12 | B,4 B,4 B,,4 | F,8 _E,4 | %7
w: O fil- li'o|fil- li|vien- de- te'O|fil-|li,|mi- ra chi'o-|no- re|
w: Vol- g'i ri-|den- ti|bei lu- ni'ar-|den-|ti,|e le vez-|zo- se|
w: Di rag- i'a-|dor- no|gia splen- de'l|gior-|no,|e tu pur|ne- ghi|
 D,4 D,4 _E,2 F,2 | G,12 | C,12 | C,4 _E,4 G,4 | C,8 C,4 | G,,4 B,,4 D,4 | G,,8 G,,4 |: %14
w: dol- ce te- *|so-|ro,|il dol- ce|ri- so|del tuo bel|vi- so.|
w: lab- br'a- mo- *|ro-|se,|spi- rin dal|pet- to|gio- ia'e di-|let- to.|
w: cru- d'a miei _|pre-|gni,|mo- ve- r'el|pie- de|ne ser- bi|fe- de.|
[M:4/4] _E,2 D,2 C,2 G,,2 | D,2 D,2 C,2 B,,2 | A,,2 G,,2 D,4 | G,,8 :| %18
w: Mi- r'a per- to'il|co- re che si|strug- ge mo-|re.|
w: E lie- to'e se-|re- no fiam- meg-|g'il bel se-|no.|
w: O fe- ra bel-|lez- za che fe|non ap- prez-|za.|
V:4
 [Bd]4 [Fd]4 [Fc]4 | [DB]8 [FA]4 | [GB]8 [DF]4 | B8 A4 | [DFB]12 | [DF]12 | c4 d4 c4 | d8 c4 | %8
 d12 | [EGc]12 | _e8 d4 | _e4 c4 G4 | [GB]4 [Gd]4 [^FAd]4 | [G=B]12 |: %14
[M:4/4] [GB]2 [Fd]2 [_EG]2 [DB]2 | [^FA]4 [EG]2 [DG]2 | [Ec]2 [DG]2 [^FAd]4 | [DG=B]8 :| %18
V:5
 G,4 B,4 F,4 |"^b" G,8 F,4 | _E,8 B,,4 | F,12 | B,,12 | B,8 B,,4 | F,8 _E,4 | D,8 _E,2 F,2 | G,12 | %9
 C,12 | C,4 _E,4 G,4 | C,12 | G,,4 B,,4 D,4 | G,,12 |:[M:4/4] _E,2 D,2 C,2 G,,2 | D,4 C,2 B,,2 | %16
 A,,2 G,,2 D,4 | G,,8 :| %18
V:6
 x12 | x12 | x12 | C4 D2 _E2 F4 | x12 | x12 | A4 =B4 G4 | [FA]8 G4 | G4 c4 =B4 | x12 | G4 B4 =B4 | %11
 G4 _E8 | D8 D4 | D12 |:[M:4/4] x8 | x8 | x8 | x8 :| %18

